public/bulle2.svg

<svg width="399" height="162" viewBox="0 0 399 162" fill="none" xmlns="http://www.w3.org/2000/svg">
<g clip-path="url(#clip0_9231_91835)">
<path d="M210.003 -131.648V-1.65663C210.003 34.1888 243.647 63.3467 285.007 63.3467V112.095C285.007 118.661 289.577 124.587 296.573 127.101C298.911 127.939 301.336 128.35 303.762 128.35C308.649 128.35 313.43 126.705 317.016 123.582L386.516 63.3479H509.996C551.356 63.3479 585 34.19 585 -1.65543V-131.647C585 -167.492 551.356 -196.65 509.996 -196.65H285.004C243.644 -196.65 210.003 -167.493 210.003 -131.648Z" fill="#00B891"/>
</g>
<defs>
<clipPath id="clip0_9231_91835">
<rect width="399" height="162" fill="white"/>
</clipPath>
</defs>
</svg>

<svg xmlns="http://www.w3.org/2000/svg" width="399" height="162" fill="none"><g clip-path="url(#a)"><path fill="#00B891" d="M210.003-131.648V-1.657c0 35.846 33.644 65.004 75.004 65.004v48.748c0 6.566 4.57 12.492 11.566 15.006a21.3 21.3 0 0 0 7.189 1.249c4.887 0 9.668-1.645 13.254-4.768l69.5-60.234h123.48C551.356 63.348 585 34.19 585-1.655v-129.992c0-35.845-33.644-65.003-75.004-65.003H285.004c-41.36 0-75.001 29.157-75.001 65.002"/></g><defs><clipPath id="a"><path fill="#fff" d="M0 0h399v162H0z"/></clipPath></defs></svg>
